source/img/icon-empty-star.svg

<svg width="15" height="14" viewBox="0 0 15 14" fill="none" xmlns="http://www.w3.org/2000/svg">
<path d="M7.74525 10.6054L7.5 10.4674L7.25475 10.6054L3.63071 12.6453L4.57642 8.85066L4.6535 8.54141L4.40569 8.34098L1.28779 5.81931L5.43318 5.48733L5.72674 5.46382L5.84852 5.19567L7.5 1.55921L9.15151 5.19568L9.27329 5.46382L9.56685 5.48733L13.7122 5.81931L10.5943 8.34098L10.3465 8.54141L10.4236 8.85066L11.3693 12.6453L7.74525 10.6054Z" stroke="#F3F3F3"/>
</svg>

<svg fill="none" height="14" width="15" xmlns="http://www.w3.org/2000/svg"><path d="m7.745 10.605-.245-.138-.245.138-3.624 2.04.945-3.794.078-.31-.248-.2-3.118-2.522 4.145-.332.294-.023.122-.268 1.651-3.637 1.652 3.637.121.268.294.023 4.145.332-3.118 2.522-.247.2.077.31.945 3.794z" stroke="#f3f3f3"/></svg>
